dist/assets/img/services/services-google.svg

<svg width="49" height="59" viewBox="0 0 49 59" fill="none" xmlns="http://www.w3.org/2000/svg">
<path fill-rule="evenodd" clip-rule="evenodd" d="M15.2815 36.7054C15.2815 36.4052 15.5395 36.1611 15.8577 36.1611H33.1429C33.4612 36.1611 33.7191 36.4052 33.7191 36.7054C33.7191 37.0063 33.4612 37.2497 33.1429 37.2497H15.8577C15.5395 37.2497 15.2815 37.0063 15.2815 36.7054ZM16.4339 38.8825C16.4339 38.5816 16.6918 38.3382 17.01 38.3382H26.2289C26.5471 38.3382 26.805 38.5816 26.805 38.8825C26.805 39.1827 26.5471 39.426 26.2289 39.426H17.01C16.6918 39.426 16.4339 39.1827 16.4339 38.8825ZM15.8577 40.5146C15.5395 40.5146 15.2815 40.7587 15.2815 41.0589C15.2815 41.3598 15.5395 41.6031 15.8577 41.6031H31.9906C32.3088 41.6031 32.5668 41.3598 32.5668 41.0589C32.5668 40.7587 32.3088 40.5146 31.9906 40.5146H15.8577ZM16.4339 43.2352C16.4339 42.9351 16.6918 42.6917 17.01 42.6917H23.9242C24.2423 42.6917 24.5003 42.9351 24.5003 43.2352C24.5003 43.5361 24.2423 43.7795 23.9242 43.7795H17.01C16.6918 43.7795 16.4339 43.5361 16.4339 43.2352ZM17.01 44.8681C16.6918 44.8681 16.4339 45.1114 16.4339 45.4123C16.4339 45.7125 16.6918 45.9566 17.01 45.9566H23.9242C24.2423 45.9566 24.5003 45.7125 24.5003 45.4123C24.5003 45.1114 24.2423 44.8681 23.9242 44.8681H17.01Z" fill="#E4E8F4"/>
<path d="M6.41136 41.0172C6.21858 41.0172 6.06274 41.164 6.06274 41.3461C6.06274 41.5283 6.21858 41.6751 6.41136 41.6751C6.81676 41.6751 7.13647 41.799 7.38847 42.0527C8.12443 42.7953 8.02538 44.3529 8.02368 44.3913V48.5891C8.02368 49.6467 8.33461 50.4624 8.94711 51.0111C9.68232 51.6711 10.6102 51.7176 10.8571 51.7176C10.8912 51.7176 10.9122 51.7161 10.9177 51.7161C11.1102 51.7073 11.258 51.5524 11.2479 51.3702C11.2378 51.1881 11.0708 51.0479 10.8815 51.0583C10.8724 51.0627 10.05 51.0929 9.42714 50.5339C8.95787 50.1135 8.72084 49.4586 8.72084 48.5891L8.72018 44.4134C8.72571 44.3382 8.8415 42.5556 7.89882 41.6043C7.80162 41.5062 7.69631 41.4191 7.5848 41.3461C7.69631 41.2724 7.80162 41.1868 7.89882 41.088C8.8415 40.1359 8.72571 38.3541 8.72084 38.301V34.1031C8.72084 33.2373 8.95655 32.5846 9.42154 32.1635C10.0375 31.606 10.871 31.6325 10.8832 31.6333C11.0753 31.6451 11.2378 31.5035 11.2479 31.322C11.2573 31.1399 11.1098 30.9857 10.9177 30.9761C10.8696 30.9761 9.78476 30.9297 8.94777 31.6812C8.33461 32.2314 8.02435 33.0463 8.02435 34.1031L8.02508 38.3231C8.05643 38.7568 8.00274 40.0186 7.39024 40.6381C7.13713 40.8933 6.8175 41.0172 6.41136 41.0172Z" fill="#3980FF"/>
<path d="M42.5892 41.0172C42.782 41.0172 42.9378 41.164 42.9378 41.3461C42.9378 41.5283 42.782 41.6751 42.5892 41.6751C42.1837 41.6751 41.8641 41.799 41.612 42.0527C40.8761 42.7953 40.9752 44.3529 40.9769 44.3913V48.5891C40.9769 49.6467 40.666 50.4624 40.0535 51.0111C39.3182 51.6711 38.3903 51.7176 38.1435 51.7176C38.1093 51.7176 38.0884 51.7161 38.0828 51.7161C37.8904 51.7073 37.7426 51.5524 37.7527 51.3702C37.7628 51.1881 37.9298 51.0479 38.1191 51.0583C38.1281 51.0627 38.9505 51.0929 39.5734 50.5339C40.0426 50.1135 40.2797 49.4586 40.2797 48.5891L40.2804 44.4134C40.2748 44.3382 40.1591 42.5556 41.1017 41.6043C41.199 41.5062 41.3043 41.4191 41.4158 41.3461C41.3043 41.2724 41.199 41.1868 41.1017 41.088C40.1591 40.1359 40.2748 38.3541 40.2797 38.301V34.1031C40.2797 33.2373 40.044 32.5846 39.579 32.1635C38.9631 31.606 38.1295 31.6325 38.1173 31.6333C37.9253 31.6451 37.7628 31.5035 37.7527 31.322C37.7433 31.1399 37.8907 30.9857 38.0828 30.9761C38.1309 30.9761 39.2158 30.9297 40.0528 31.6812C40.666 32.2314 40.9762 33.0463 40.9762 34.1031L40.9755 38.3231C40.9441 38.7568 40.9978 40.0186 41.6103 40.6381C41.8634 40.8933 42.1831 41.0172 42.5892 41.0172Z" fill="#3980FF"/>
<path d="M39.7859 10.7689C39.8147 10.9457 39.9662 11.0783 40.1454 11.0783H43.9565C46.2366 11.0783 48.085 12.9267 48.085 15.2071V54.1346C48.085 56.4149 46.2366 58.2631 43.9565 58.2631H5.02872C2.74859 58.2631 0.90022 56.4149 0.90022 54.1346V15.2071C0.90022 12.9267 2.74859 11.0783 5.02872 11.0783H8.85509C9.03423 11.0783 9.18578 10.9457 9.21454 10.7689C9.25083 10.5458 9.08091 10.3408 8.85501 10.3408H5.02872C2.34129 10.3408 0.16272 12.5194 0.16272 15.2071V54.1346C0.16272 56.822 2.34129 59.0006 5.02872 59.0006H43.9565C46.6439 59.0006 48.8225 56.822 48.8225 54.1346V15.2071C48.8225 12.5194 46.6439 10.3408 43.9565 10.3408H40.1454C39.9195 10.3408 39.7496 10.5458 39.7859 10.7689Z" fill="#14161D"/>
<path d="M24.6886 26.3372C31.9614 26.3372 37.8572 20.4414 37.8572 13.1686C37.8572 5.89578 31.9614 0 24.6886 0C17.4158 0 11.52 5.89578 11.52 13.1686C11.52 20.4414 17.4158 26.3372 24.6886 26.3372Z" fill="#FEF4FF"/>
<path d="M22.081 11.4657V10.9657C21.8049 10.9657 21.581 11.1896 21.581 11.4657H22.081ZM22.081 12.3704L22.4346 12.7239L22.581 12.5775V12.3704H22.081ZM20.5366 12.6354L20.1831 12.9889L20.1831 12.9889L20.5366 12.6354ZM23.8903 18.2507H24.3903V18.0436L24.2439 17.8972L23.8903 18.2507ZM22.9857 17.3461H22.4857V17.5532L22.6321 17.6996L22.9857 17.3461ZM22.9857 15.989H23.4857V15.7819L23.3392 15.6355L22.9857 15.989ZM22.081 15.0844H21.581V15.2915L21.7275 15.4379L22.081 15.0844ZM22.081 14.1797V13.6797C21.8049 13.6797 21.581 13.9036 21.581 14.1797H22.081ZM26.1043 6.94238V8.75172H27.1043V6.94238H26.1043ZM25.6997 9.15638H24.795V10.1564H25.6997V9.15638ZM22.9857 10.9657H22.081V11.9657H22.9857V10.9657ZM21.581 11.4657V12.3704H22.581V11.4657H21.581ZM21.7275 12.0168L21.4625 12.2818L22.1696 12.9889L22.4346 12.7239L21.7275 12.0168ZM20.8902 12.2818L19.2682 10.6598L18.5611 11.3669L20.1831 12.9889L20.8902 12.2818ZM23.3903 10.561C23.3903 10.7845 23.2092 10.9657 22.9857 10.9657V11.9657C23.7615 11.9657 24.3903 11.3368 24.3903 10.561H23.3903ZM24.795 9.15638C24.0192 9.15638 23.3903 9.78527 23.3903 10.561H24.3903C24.3903 10.3376 24.5715 10.1564 24.795 10.1564V9.15638ZM21.4625 12.2818C21.3045 12.4398 21.0482 12.4398 20.8902 12.2818L20.1831 12.9889C20.7316 13.5375 21.621 13.5375 22.1696 12.9889L21.4625 12.2818ZM26.1043 8.75172C26.1043 8.97521 25.9232 9.15638 25.6997 9.15638V10.1564C26.4755 10.1564 27.1043 9.52749 27.1043 8.75172H26.1043ZM24.3903 19.6077V18.2507H23.3903V19.6077H24.3903ZM24.2439 17.8972L23.3392 16.9925L22.6321 17.6996L23.5368 18.6043L24.2439 17.8972ZM23.4857 17.3461V15.989H22.4857V17.3461H23.4857ZM23.3392 15.6355L22.4346 14.7308L21.7275 15.4379L22.6321 16.3426L23.3392 15.6355ZM22.581 15.0844V14.1797H21.581V15.0844H22.581ZM22.081 14.6797H25.6997V13.6797H22.081V14.6797ZM26.1043 15.0844V15.6875H27.1043V15.0844H26.1043ZM27.8106 17.3937H30.223V16.3937H27.8106V17.3937ZM27.009 16.5922C27.009 17.0349 27.3679 17.3937 27.8106 17.3937V16.3937C27.9202 16.3937 28.009 16.4826 28.009 16.5922H27.009ZM26.9059 16.489C26.9628 16.489 27.009 16.5352 27.009 16.5922H28.009C28.009 15.9829 27.5151 15.489 26.9059 15.489V16.489ZM26.1043 15.6875C26.1043 16.1302 26.4632 16.489 26.9059 16.489V15.489C27.0155 15.489 27.1043 15.5779 27.1043 15.6875H26.1043ZM25.6997 14.6797C25.9232 14.6797 26.1043 14.8609 26.1043 15.0844H27.1043C27.1043 14.3086 26.4755 13.6797 25.6997 13.6797V14.6797ZM24.795 19.1077C21.5737 19.1077 18.9623 16.4963 18.9623 13.275H17.9623C17.9623 17.0486 21.0214 20.1077 24.795 20.1077V19.1077ZM30.6277 13.275C30.6277 16.4963 28.0163 19.1077 24.795 19.1077V20.1077C28.5686 20.1077 31.6277 17.0486 31.6277 13.275H30.6277ZM24.795 7.44238C28.0163 7.44238 30.6277 10.0538 30.6277 13.275H31.6277C31.6277 9.50147 28.5686 6.44238 24.795 6.44238V7.44238ZM24.795 6.44238C21.0214 6.44238 17.9623 9.50147 17.9623 13.275H18.9623C18.9623 10.0538 21.5737 7.44238 24.795 7.44238V6.44238Z" fill="black"/>
</svg>

<svg width="49" height="59" fill="none" xmlns="http://www.w3.org/2000/svg"><path fill-rule="evenodd" clip-rule="evenodd" d="M15.281 36.705c0-.3.258-.544.577-.544h17.285c.318 0 .576.244.576.544 0 .301-.258.545-.576.545H15.858c-.319 0-.577-.244-.577-.545zm1.153 2.178c0-.301.258-.545.576-.545h9.219c.318 0 .576.244.576.544 0 .3-.258.544-.576.544H17.01c-.318 0-.576-.243-.576-.544zm-.576 1.632c-.319 0-.577.244-.577.544 0 .3.258.544.577.544H31.99c.318 0 .576-.243.576-.544 0-.3-.258-.544-.576-.544H15.858zm.576 2.72c0-.3.258-.543.576-.543h6.914c.318 0 .576.243.576.543 0 .301-.258.544-.576.544H17.01c-.318 0-.576-.243-.576-.544zm.576 1.633c-.318 0-.576.243-.576.544 0 .3.258.545.576.545h6.914c.318 0 .576-.245.576-.545 0-.3-.258-.544-.576-.544H17.01z" fill="#E4E8F4"/><path d="M6.411 41.017a.339.339 0 00-.348.33c0 .181.156.328.348.328.406 0 .725.124.977.378.736.742.637 2.3.636 2.338v4.198c0 1.058.31 1.873.923 2.422.735.66 1.663.707 1.91.707.034 0 .055-.002.06-.002a.336.336 0 00.33-.346.343.343 0 00-.365-.312c-.01.005-.832.035-1.455-.524-.47-.42-.706-1.075-.706-1.945v-4.176c.005-.075.12-1.857-.822-2.809a1.94 1.94 0 00-.314-.258 1.94 1.94 0 00.314-.258c.942-.952.827-2.734.822-2.787v-4.198c0-.866.236-1.518.7-1.94.617-.557 1.45-.53 1.462-.53a.339.339 0 00.365-.311.337.337 0 00-.33-.346c-.048 0-1.133-.046-1.97.705-.613.55-.924 1.365-.924 2.422l.001 4.22c.031.434-.022 1.696-.635 2.315-.253.255-.572.38-.979.38zm36.179 0c.192 0 .348.147.348.33a.339.339 0 01-.349.328c-.405 0-.725.124-.977.378-.736.742-.637 2.3-.635 2.338v4.198c0 1.058-.311 1.873-.923 2.422-.736.66-1.664.707-1.91.707-.035 0-.056-.002-.061-.002a.336.336 0 01-.33-.346.343.343 0 01.366-.312c.01.005.831.035 1.454-.524.47-.42.707-1.075.707-1.945v-4.176c-.005-.075-.12-1.857.822-2.809.097-.098.202-.185.314-.258a1.944 1.944 0 01-.314-.258c-.943-.952-.827-2.734-.822-2.787v-4.198c0-.866-.236-1.518-.701-1.94-.616-.557-1.45-.53-1.462-.53a.339.339 0 01-.364-.311.337.337 0 01.33-.346c.048 0 1.133-.046 1.97.705.613.55.923 1.365.923 2.422v4.22c-.032.434.022 1.696.634 2.315.253.255.573.38.98.38z" fill="#3980FF"/><path d="M39.786 10.769c.029.177.18.31.36.31h3.81a4.129 4.129 0 014.129 4.128v38.928a4.128 4.128 0 01-4.129 4.128H5.03A4.128 4.128 0 01.9 54.135V15.207a4.129 4.129 0 014.129-4.129h3.826c.18 0 .33-.132.36-.31a.367.367 0 00-.36-.427H5.029a4.866 4.866 0 00-4.866 4.866v38.928A4.866 4.866 0 005.029 59h38.927a4.866 4.866 0 004.866-4.866V15.207a4.866 4.866 0 00-4.866-4.866h-3.81a.367.367 0 00-.36.428z" fill="#14161D"/><path d="M24.689 26.337c7.272 0 13.168-5.896 13.168-13.168C37.857 5.896 31.961 0 24.69 0c-7.274 0-13.17 5.896-13.17 13.169 0 7.272 5.896 13.168 13.169 13.168z" fill="#FEF4FF"/><path d="M22.081 11.466v-.5a.5.5 0 00-.5.5h.5zm0 .904l.354.354.146-.146v-.208h-.5zm-1.544.265l-.354.354.354-.354zm3.353 5.616h.5v-.207l-.146-.147-.354.354zm-.904-.905h-.5v.207l.146.147.354-.354zm0-1.357h.5v-.207l-.147-.146-.353.353zm-.905-.905h-.5v.207l.146.147.354-.354zm0-.904v-.5a.5.5 0 00-.5.5h.5zm4.023-7.238v1.81h1v-1.81h-1zM25.7 9.156h-.905v1h.905v-1zm-2.714 1.81h-.905v1h.905v-1zm-1.405.5v.904h1v-.904h-1zm.146.55l-.265.266.708.707.265-.265-.707-.707zm-.837.266l-1.622-1.622-.707.707 1.622 1.622.707-.707zm2.5-1.721a.405.405 0 01-.404.405v1c.776 0 1.404-.63 1.404-1.405h-1zm1.405-1.405c-.776 0-1.405.63-1.405 1.405h1c0-.223.181-.405.405-.405v-1zm-3.333 3.126a.405.405 0 01-.572 0l-.707.707a1.405 1.405 0 001.987 0l-.708-.707zm4.642-3.53a.405.405 0 01-.404.404v1c.776 0 1.404-.629 1.404-1.404h-1zM24.39 19.608V18.25h-1v1.357h1zm-.146-1.71l-.905-.905-.707.707.905.904.707-.707zm-.758-.552V15.99h-1v1.357h1zm-.147-1.71l-.904-.905-.707.707.904.905.707-.707zm-.758-.552v-.904h-1v.904h1zm-.5-.404H25.7v-1h-3.62v1zm4.023.404v.604h1v-.604h-1zm1.707 2.31h2.412v-1h-2.412v1zm-.802-.802c0 .443.359.802.802.802v-1c.11 0 .198.089.198.198h-1zm-.103-.103c.057 0 .103.046.103.103h1c0-.61-.494-1.103-1.103-1.103v1zm-.802-.802c0 .443.36.802.802.802v-1c.11 0 .198.089.198.198h-1zM25.7 14.68c.223 0 .404.18.404.404h1c0-.775-.628-1.404-1.404-1.404v1zm-.905 4.428a5.833 5.833 0 01-5.833-5.833h-1a6.833 6.833 0 006.833 6.833v-1zm5.833-5.833a5.833 5.833 0 01-5.833 5.833v1a6.833 6.833 0 006.833-6.833h-1zm-5.833-5.833a5.833 5.833 0 015.833 5.833h1a6.833 6.833 0 00-6.833-6.833v1zm0-1a6.833 6.833 0 00-6.833 6.833h1a5.833 5.833 0 015.833-5.833v-1z" fill="#000"/></svg>
